public/img/HOW/Startup.svg

<?xml version="1.0" encoding="UTF-8"?>
<svg width="140px" height="160px" viewBox="0 0 140 160" version="1.1" xmlns="http://www.w3.org/2000/svg" xmlns:xlink="http://www.w3.org/1999/xlink">
    <!-- Generator: Sketch 42 (36781) - http://www.bohemiancoding.com/sketch -->
    <title>Startup</title>
    <desc>Created with Sketch.</desc>
    <defs>
        <path d="M17.6872848,3.25988304 C20.0737748,1.50175439 22.9460927,0.564210526 25.9695364,0.564210526 C29.0031788,0.564210526 32.0813245,1.61777778 34.634702,3.52935673 C37.2872848,5.6477193 39.1675497,8.64374269 39.8249007,11.7726316 L40.3607947,14.0940351 C41.1989404,17.7478363 40.4850331,21.8217544 38.4508609,24.9936842 L35.9688742,28.9890058 L39.7423841,30.1267836 C44.1278146,31.525614 47.825298,34.608655 49.9113907,38.5936842 L50.1274172,39.142924 L51.6989404,43.5854971 C52.5046358,45.8283041 52.1699338,48.2535673 50.7838411,50.2334503 C49.4830464,52.1291228 47.2782781,53.2687719 44.8880795,53.2687719 L7.35788079,53.2687719 C4.99827815,53.2687719 2.7786755,52.1338012 1.4213245,50.2306433 C0.102913907,48.2900585 -0.239205298,45.7403509 0.509006623,43.5480702 L2.24556291,38.768655 L2.40317881,38.6021053 C4.58569536,34.4870175 8.20251656,31.4984795 12.5805298,30.2016374 L16.3540397,29.0647953 L13.6384106,24.6839766 C11.741457,21.6954386 11.0071523,18.0930994 11.5801325,14.5525146 L11.924106,12.5052632 C12.6203974,8.67087719 14.6656954,5.39415205 17.6872848,3.25988304 Z M3.69748344,48.6175439 C4.52728477,49.7787135 5.86794702,50.4617544 7.35788079,50.4617544 L44.8880795,50.4617544 C46.3872848,50.4617544 47.7047682,49.7918129 48.5039735,48.6240936 C49.3671523,47.3936842 49.5739073,45.9087719 49.0815894,44.5361404 L47.4275497,39.8559064 C45.6752318,36.5426901 42.5794702,33.9752047 38.9255629,32.8084211 L31.670596,30.6208187 L36.1051656,23.4853801 C37.7490066,20.9207018 38.3229139,17.654269 37.6525828,14.7274854 L37.1101987,12.3817544 C36.5780132,9.8554386 35.0611921,7.44982456 32.942649,5.75812865 C30.8992053,4.22830409 28.4107285,3.3702924 25.9695364,3.3702924 C23.538543,3.3702924 21.2354967,4.12163743 19.3042384,5.54479532 C16.8639735,7.26830409 15.2229139,9.90783626 14.6619868,12.9927485 L14.322649,15.0128655 C13.8637086,17.8610526 14.4543046,20.7644444 15.9887417,23.1822222 L20.646755,30.7012865 L13.3686093,32.8945029 C9.69986755,33.9808187 6.67178808,36.4902924 4.83602649,39.9616374 L4.65708609,40.2844444 L3.12913907,44.4884211 C2.67019868,45.8311111 2.88529801,47.4226901 3.69748344,48.6175439 Z" id="path-1"></path>
        <path d="M19.2513907,0.896374269 L2.89827815,1.18923977 C1.42874172,1.21450292 0.267019868,2.19976608 0.273509934,3.37964912 L0.376423841,20.3649123 C0.382913907,21.5466667 1.55668874,22.502924 3.02529801,22.4776608 L19.3811921,22.1847953 C20.6643709,22.1614035 21.712053,21.3978947 21.9392053,20.4023392 C21.9716556,20.3209357 21.9716556,20.2245614 21.9707285,20.1300585 C21.9864901,20.0739181 21.9864901,20.0336842 21.9864901,19.9803509 L21.8845033,2.99415205 C21.8845033,2.94081871 21.882649,2.88654971 21.8678146,2.84444444 C21.8659603,2.74994152 21.8659603,2.65450292 21.8316556,2.57497076 C21.5952318,1.60280702 20.5688742,0.896374269 19.3116556,0.896374269 L19.2513907,0.896374269 Z" id="path-3"></path>
        <path d="M1.4797351,0.928187135 L0.134437086,0.95251462 L0.239205298,18.2315789 L1.58450331,18.2072515 C2.75271523,18.1866667 3.71231788,17.3847953 3.70675497,16.4238596 L3.62331126,2.63672515 C3.61774834,1.68701754 2.67298013,0.928187135 1.52516556,0.928187135 L1.4797351,0.928187135 Z" id="path-5"></path>
        <path d="M2.1407947,0.47625731 C0.973509934,0.497777778 0.0120529801,1.29964912 0.017615894,2.26152047 L0.101986755,16.0467836 C0.108476821,17.0095906 1.07642384,17.7777778 2.24463576,17.7562573 L3.59086093,17.7309942 L3.48609272,0.451929825 L2.1407947,0.47625731 Z" id="path-7"></path>
        <path d="M12.3255629,0.79625731 L2.68410596,0.877660819 C1.19695364,0.890760234 0.24013245,1.95555556 0.253112583,3.58830409 L0.282781457,7.17567251 L2.06013245,7.15883041 L2.02953642,3.57333333 C2.02304636,2.67602339 2.42728477,2.67321637 2.69801325,2.67040936 L12.3394702,2.58900585 C12.6908609,2.58619883 12.7817219,2.70596491 12.8160265,2.75087719 C12.9217219,2.8902924 12.9829139,3.15695906 12.9866225,3.47976608 L13.0144371,7.06526316 L14.7917881,7.0502924 L14.7621192,3.46573099 C14.7574834,2.73216374 14.5776159,2.12584795 14.2308609,1.66643275 C13.9313907,1.26877193 13.3621192,0.79625731 12.3533775,0.79625731 L12.3255629,0.79625731 Z" id="path-9"></path>
        <path d="M6.90172185,1.91064327 C4.72940397,1.91064327 2.1389404,1.45309942 0.140927152,0.640935673 C0.12794702,1.05918129 0.154834437,1.45309942 0.221589404,1.85637427 C0.676821192,4.5445614 2.75456954,6.65169591 5.42291391,7.15134503 C5.79748344,7.21871345 6.51231788,7.26081871 6.88688742,7.26081871 C10.4415894,7.26081871 13.6736424,4.3677193 13.6736424,0.790643275 L13.6736424,0.640935673 C10.9719205,1.45309942 9.07311258,1.91064327 6.90172185,1.91064327 Z" id="path-11"></path>
        <path d="M4.22874172,4.05614035 C-0.207682119,8.44538012 -0.263311258,15.6332164 4.09430464,20.1038596 C4.80635762,20.8739181 5.31629139,21.8217544 5.55549669,22.8350877 C7.44596026,23.7651462 9.75178808,24.3471345 12.1243709,24.3471345 C14.535894,24.3471345 16.8964238,23.7529825 18.8128477,22.7789474 C19.1086093,21.6589474 19.685298,20.6175439 20.4761589,19.7548538 C24.4712583,15.2973099 24.3368212,8.47438596 20.1553642,4.19274854 C17.9459603,1.93309942 15.0356291,0.800935673 12.1234437,0.800935673 C9.27337748,0.800935673 6.42331126,1.88538012 4.22874172,4.05614035 Z" id="path-13"></path>
    </defs>
    <g id="Page-1" stroke="none" stroke-width="1" fill="none" fill-rule="evenodd">
        <g id="Landing-Copy-3" transform="translate(-529.000000, -1494.000000)">
            <g id="HOW-IT-WORKS-Copy" transform="translate(55.000000, 1255.000000)">
                <g id="Startup" transform="translate(474.000000, 239.000000)">
                    <polygon id="Fill-1" fill="#49B9C9" points="0.160397351 40.4573567 0.160397351 120.125193 69.6949669 159.959579 139.232318 120.125193 139.232318 40.4573567 69.6949669 0.624842105"></polygon>
                    <polygon id="Fill-2" fill="#49B9C9" points="0.15984106 40.4587602 0.15984106 120.125661 69.6953377 159.960982 139.232689 120.125661 139.232689 40.4587602 69.6953377 0.625309942"></polygon>
                    <polygon id="Fill-3" fill="#49B9C9" points="0.159284768 40.4592281 0.159284768 120.126129 69.6947815 159.96145 139.23306 120.126129 139.23306 40.4592281 69.6947815 0.624842105"></polygon>
                    <path d="M48.2336159,118.60931 L46.7056689,122.814222 C46.2467285,124.155977 46.4618278,125.747556 47.2740132,126.942409 C48.1028874,128.104515 49.4444768,128.78662 50.9344106,128.78662 L88.4646093,128.78662 C89.9628874,128.78662 91.2803709,128.117614 92.0805033,126.949895 C92.942755,125.719485 93.1495099,124.232702 92.6571921,122.861006 L91.0031523,118.180772 C89.2508344,114.867556 86.1550728,112.30007 82.5020927,111.134222 L75.2461987,108.945684 L79.6816954,101.810246 C81.3246093,99.2465029 81.8994437,95.9791345 81.2281854,93.0532865 L80.6867285,90.7066199 C80.1554702,88.1803041 78.6377219,85.7746901 76.5191788,84.0829942 C74.4757351,82.5531696 71.9863311,81.6960936 69.5451391,81.6960936 C67.1150728,81.6960936 64.8110993,82.4474386 62.8798411,83.8696608 C60.4405033,85.5931696 58.7994437,88.2327018 58.2385166,91.317614 L57.8991788,93.3386667 C57.4393113,96.1859181 58.0299073,99.0902456 59.5652715,101.508023 L64.2232848,109.025216 L56.9451391,111.219368 C53.2754702,112.304749 50.2483179,114.814222 48.4125563,118.287439 L48.2336159,118.60931 Z M88.4646093,131.593637 L50.9344106,131.593637 C48.5738808,131.593637 46.3552053,130.457731 44.9978543,128.555509 C43.6794437,126.61586 43.3363974,124.065216 44.0846093,121.873871 L45.8211656,117.094456 L45.9797086,116.926971 C48.1622252,112.810947 51.7781192,109.823345 56.1561325,108.527439 L59.9296424,107.389661 L57.2158675,103.008842 C55.3179868,100.020304 54.5836821,96.4179649 55.1557351,92.8783158 L55.4997086,90.8301287 C56.1969272,86.9957427 58.2422252,83.7190175 61.2628874,81.5856842 C63.6503046,79.8266199 66.5226225,78.889076 69.5451391,78.889076 C72.5797086,78.889076 75.6569272,79.9426433 78.2103046,81.8551579 C80.8638146,83.9725848 82.7440795,86.9676725 83.4023576,90.0974971 L83.9373245,92.4179649 C84.7754702,96.0727018 84.0615629,100.14662 82.0264636,103.31855 L79.5444768,107.312936 L83.3198411,108.451649 C87.7034172,109.85048 91.4018278,112.934456 93.4879205,116.917614 L93.703947,117.467789 L95.274543,121.911298 C96.0793113,124.152234 95.7464636,126.578433 94.3594437,128.558316 C93.0605033,130.454924 90.8538808,131.593637 88.4646093,131.593637 L88.4646093,131.593637 Z" id="Fill-4" fill="#FFFFFF"></path>
                    <g id="Group-9" transform="translate(43.576159, 78.325146)">
                        <mask id="mask-2" fill="white">
                            <use xlink:href="#path-1"></use>
                        </mask>
                        <g id="Clip-7"></g>
                        <path d="M-908.609272,3858.71345 L793.94649,3858.71345 L793.94649,-1849.55602 L-908.609272,-1849.55602 L-908.609272,3858.71345 Z M-911.390728,3861.52047 L796.727947,3861.52047 L796.727947,-1852.36304 L-911.390728,-1852.36304 L-911.390728,3861.52047 Z" id="Fill-6" fill="#FFFFFF" mask="url(#mask-2)"></path>
                        <path d="M-3.34609272,56.7607018 L55.5864901,56.7607018 L55.5864901,-2.92865497 L-3.34609272,-2.92865497 L-3.34609272,56.7607018 Z M-6.12754967,59.5677193 L58.367947,59.5677193 L58.367947,-5.73567251 L-6.12754967,-5.73567251 L-6.12754967,59.5677193 Z" id="Fill-8" fill="#FFFFFF" mask="url(#mask-2)"></path>
                    </g>
                    <g id="Group-12" transform="translate(100.132450, 45.576608)">
                        <mask id="mask-4" fill="white">
                            <use xlink:href="#path-3"></use>
                        </mask>
                        <g id="Clip-11"></g>
                        <polygon id="Fill-10" fill="#FFFFFF" mask="url(#mask-4)" points="-1.70299338 24.8492164 24.5242914 24.2681637 23.9642914 -1.47592982 -2.26299338 -0.894877193"></polygon>
                    </g>
                    <g id="Group-15" transform="translate(123.311258, 47.447953)">
                        <mask id="mask-6" fill="white">
                            <use xlink:href="#path-5"></use>
                        </mask>
                        <g id="Clip-14"></g>
                        <polygon id="Fill-13" fill="#FFFFFF" mask="url(#mask-6)" points="-1.88898013 20.480655 6.18466225 20.3019415 5.71366887 -1.36916959 -2.35997351 -1.18952047"></polygon>
                    </g>
                    <g id="Group-18" transform="translate(95.496689, 48.383626)">
                        <mask id="mask-8" fill="white">
                            <use xlink:href="#path-7"></use>
                        </mask>
                        <g id="Clip-17"></g>
                        <polygon id="Fill-16" fill="#FFFFFF" mask="url(#mask-8)" points="-1.988 20.052117 6.08564238 19.8734035 5.61464901 -1.7977076 -2.45899338 -1.61899415"></polygon>
                    </g>
                    <g id="Group-21" transform="translate(103.841060, 40.898246)">
                        <mask id="mask-10" fill="white">
                            <use xlink:href="#path-9"></use>
                        </mask>
                        <g id="Clip-20"></g>
                        <polygon id="Fill-19" fill="#FFFFFF" mask="url(#mask-10)" points="-1.84002649 9.61534503 17.0646093 9.19616374 16.8281854 -1.63330994 -2.07552318 -1.21412865"></polygon>
                    </g>
                    <g id="Group-24" transform="translate(21.324503, 64.290058)">
                        <mask id="mask-12" fill="white">
                            <use xlink:href="#path-11"></use>
                        </mask>
                        <g id="Clip-23"></g>
                        <polygon id="Fill-22" fill="#FFFFFF" mask="url(#mask-12)" points="-2.11390728 9.53169591 15.9266225 9.53169591 15.9266225 -1.63368421 -2.11390728 -1.63368421"></polygon>
                    </g>
                    <g id="Group-27" transform="translate(15.761589, 39.962573)">
                        <mask id="mask-14" fill="white">
                            <use xlink:href="#path-13"></use>
                        </mask>
                        <g id="Clip-26"></g>
                        <polygon id="Fill-25" fill="#FFFFFF" mask="url(#mask-14)" points="-1.38794702 26.6189474 25.6366887 26.6189474 25.6366887 -1.47181287 -1.38794702 -1.47181287"></polygon>
                    </g>
                    <g id="Group-31" transform="translate(51.920530, 50.254971)" fill="#FFFFFF">
                        <polygon id="Fill-28" points="0.325430464 8.83649123 32.7757616 8.83649123 32.7757616 6.02947368 0.325430464 6.02947368"></polygon>
                        <polygon id="Fill-30" points="27.5617351 14.0044912 26.4231921 12.7712749 32.4506093 7.11794152 26.4231921 1.46367251 27.5617351 0.229520468 34.9010728 7.11794152"></polygon>
                    </g>
                </g>
            </g>
        </g>
    </g>
</svg>

<svg width="140" height="160" viewBox="0 0 140 160" xmlns="http://www.w3.org/2000/svg" xmlns:xlink="http://www.w3.org/1999/xlink"><title>Startup</title><defs><path d="M17.687 3.26C20.074 1.502 22.947.564 25.97.564c3.033 0 6.111 1.054 8.665 2.965 2.652 2.119 4.533 5.115 5.19 8.244l.536 2.321c.838 3.654.124 7.728-1.91 10.9l-2.482 3.995 3.773 1.138c4.386 1.399 8.083 4.482 10.17 8.467l.215.549 1.572 4.442c.806 2.243.47 4.669-.915 6.648-1.301 1.896-3.506 3.036-5.896 3.036H7.358A7.296 7.296 0 0 1 1.42 50.23C.103 48.29-.239 45.74.51 43.548l1.737-4.78.157-.166c2.183-4.115 5.8-7.104 10.178-8.4l3.773-1.137-2.716-4.381a14.554 14.554 0 0 1-2.058-10.131l.344-2.048c.696-3.834 2.742-7.11 5.763-9.245zM3.697 48.618c.83 1.16 2.17 1.844 3.66 1.844h37.531c1.5 0 2.817-.67 3.616-1.838.863-1.23 1.07-2.715.578-4.088l-1.654-4.68c-1.753-3.313-4.849-5.88-8.502-7.048l-7.255-2.187 4.434-7.136c1.644-2.564 2.218-5.83 1.548-8.758l-.543-2.345c-.532-2.527-2.049-4.932-4.167-6.624-2.044-1.53-4.532-2.388-6.973-2.388-2.431 0-4.735.752-6.666 2.175-2.44 1.723-4.081 4.363-4.642 7.448l-.34 2.02a11.745 11.745 0 0 0 1.667 8.17l4.658 7.518-7.278 2.194c-3.67 1.086-6.697 3.595-8.533 7.067l-.179.322-1.528 4.204c-.459 1.343-.244 2.935.568 4.13z" id="a"/><path d="M19.251.896L2.898 1.19C1.428 1.215.267 2.2.274 3.38l.102 16.986c.007 1.182 1.18 2.138 2.65 2.113l16.355-.293c1.283-.024 2.331-.787 2.558-1.783a.729.729 0 0 0 .032-.272c.015-.056.015-.096.015-.15l-.101-16.986a.475.475 0 0 0-.017-.15c-.002-.094-.002-.19-.036-.269-.237-.972-1.263-1.679-2.52-1.679h-.06z" id="c"/><path d="M1.48.928L.134.953.24 18.232l1.346-.025c1.168-.02 2.127-.822 2.122-1.783L3.623 2.637c-.005-.95-.95-1.709-2.098-1.709H1.48z" id="e"/><path d="M2.14.476C.975.498.013 1.3.019 2.262l.084 13.785c.006.963.974 1.73 2.143 1.71l1.346-.026L3.486.451 2.141.477z" id="g"/><path d="M12.326.796L2.684.878C1.197.89.24 1.956.254 3.588l.029 3.588 1.777-.017-.03-3.586c-.007-.897.397-.9.668-.903l9.641-.081c.352-.003.443.117.477.162.106.14.167.406.17.729l.028 3.585 1.778-.015-.03-3.584c-.005-.734-.184-1.34-.531-1.8-.3-.397-.869-.87-1.878-.87h-.027z" id="i"/><path d="M6.902 1.91C4.729 1.91 2.139 1.454.14.64c-.013.42.014.813.08 1.216a6.484 6.484 0 0 0 5.202 5.295c.374.068 1.09.11 1.464.11 3.555 0 6.787-2.893 6.787-6.47V.64c-2.702.812-4.6 1.27-6.772 1.27z" id="k"/><path d="M4.229 4.056c-4.437 4.39-4.492 11.577-.135 16.048a6.115 6.115 0 0 1 1.461 2.731c1.891.93 4.197 1.512 6.57 1.512 2.41 0 4.771-.594 6.688-1.568a7.223 7.223 0 0 1 1.663-3.024c3.995-4.458 3.86-11.28-.32-15.562A11.197 11.197 0 0 0 12.122.8c-2.85 0-5.7 1.084-7.894 3.255z" id="m"/></defs><g fill="none" fill-rule="evenodd"><path fill="#49B9C9" d="M.16 40.457v79.668l69.535 39.835 69.537-39.835V40.457L69.695.625z"/><path fill="#49B9C9" d="M.16 40.459v79.667l69.535 39.835 69.538-39.835V40.459L69.695.625z"/><path fill="#49B9C9" d="M.16 40.46v79.666l69.535 39.835 69.538-39.835V40.46L69.695.625z"/><path d="M48.234 118.61l-1.528 4.204c-.46 1.342-.244 2.934.568 4.128.829 1.163 2.17 1.845 3.66 1.845h37.53c1.499 0 2.816-.67 3.617-1.837.862-1.23 1.069-2.717.576-4.089l-1.654-4.68c-1.752-3.313-4.848-5.88-8.5-7.047l-7.257-2.188 4.436-7.136c1.643-2.563 2.217-5.83 1.546-8.757l-.541-2.346c-.532-2.527-2.05-4.932-4.168-6.624-2.043-1.53-4.533-2.387-6.974-2.387-2.43 0-4.734.751-6.665 2.174-2.44 1.723-4.08 4.363-4.641 7.448l-.34 2.02c-.46 2.848.13 5.752 1.666 8.17l4.658 7.517-7.278 2.194c-3.67 1.086-6.697 3.595-8.532 7.068l-.18.322zm40.23 12.984h-37.53a7.297 7.297 0 0 1-5.936-3.038c-1.319-1.94-1.662-4.49-.913-6.682l1.736-4.78.159-.167c2.182-4.116 5.798-7.104 10.176-8.4l3.774-1.137-2.714-4.381a14.554 14.554 0 0 1-2.06-10.13l.344-2.049c.697-3.834 2.742-7.111 5.763-9.244 2.387-1.76 5.26-2.697 8.282-2.697 3.035 0 6.112 1.054 8.665 2.966 2.654 2.118 4.534 5.113 5.192 8.242l.535 2.321c.838 3.655.125 7.729-1.91 10.9l-2.483 3.995 3.776 1.139c4.383 1.398 8.082 4.482 10.168 8.466l.216.55 1.57 4.443c.805 2.241.472 4.667-.915 6.647-1.298 1.897-3.505 3.036-5.894 3.036z" fill="#FFF"/><g transform="translate(43.576 78.325)"><mask id="b" fill="#fff"><use xlink:href="#a"/></mask><path d="M-908.61 3858.713H793.947v-5708.269H-908.609v5708.27zm-2.78 2.807H796.727v-5713.883H-911.391V3861.52z" fill="#FFF" mask="url(#b)"/><path d="M-3.346 56.76h58.932V-2.928H-3.346v59.69zm-2.782 2.808h64.496V-5.736H-6.128v65.304z" fill="#FFF" mask="url(#b)"/></g><g transform="translate(100.132 45.577)"><mask id="d" fill="#fff"><use xlink:href="#c"/></mask><path fill="#FFF" mask="url(#d)" d="M-1.703 24.85l26.227-.582-.56-25.744-26.227.581z"/></g><g transform="translate(123.311 47.448)"><mask id="f" fill="#fff"><use xlink:href="#e"/></mask><path fill="#FFF" mask="url(#f)" d="M-1.889 20.48l8.074-.178L5.714-1.37l-8.074.18z"/></g><g transform="translate(95.497 48.384)"><mask id="h" fill="#fff"><use xlink:href="#g"/></mask><path fill="#FFF" mask="url(#h)" d="M-1.988 20.052l8.074-.179-.471-21.67-8.074.178z"/></g><g transform="translate(103.841 40.898)"><mask id="j" fill="#fff"><use xlink:href="#i"/></mask><path fill="#FFF" mask="url(#j)" d="M-1.84 9.615l18.905-.419-.237-10.83-18.904.42z"/></g><g transform="translate(21.325 64.29)"><mask id="l" fill="#fff"><use xlink:href="#k"/></mask><path fill="#FFF" mask="url(#l)" d="M-2.114 9.532h18.04V-1.634h-18.04z"/></g><g transform="translate(15.762 39.963)"><mask id="n" fill="#fff"><use xlink:href="#m"/></mask><path fill="#FFF" mask="url(#n)" d="M-1.388 26.619h27.025v-28.09H-1.388z"/></g><g fill="#FFF"><path d="M52.246 59.091h32.45v-2.807h-32.45z"/><path d="M79.482 64.26l-1.138-1.234 6.027-5.653-6.027-5.654 1.138-1.235 7.34 6.889z"/></g></g></svg>
